images/svg/SHOP.svg

<svg width="32" height="30" viewBox="0 0 32 30" fill="none" xmlns="http://www.w3.org/2000/svg">
<path d="M8.52539 20.7261H11.9875V23.8662H8.52539V20.7261Z" fill="#CAD3DB"/>
<path d="M1.875 20.7261H5.3371V23.8662H1.875V20.7261Z" fill="#CAD3DB"/>
<path d="M6.83398 20.4351H13.9055V29.7827H6.83398V20.4351Z" fill="#CAD3DB"/>
<path d="M8 0H23.7635V7.74118H8V0Z" fill="#CAD3DB"/>
<path d="M26.5203 13.0341C26.1034 14.0096 25.3336 14.7952 24.362 15.2367C23.3905 15.6783 22.2876 15.7437 21.2698 15.4203C20.2522 15.0969 19.3933 14.4078 18.8618 13.4887C18.105 14.7985 16.703 15.6107 15.1803 15.6212C13.6579 15.6316 12.2446 14.839 11.4693 13.5398C10.9313 14.4482 10.0705 15.1245 9.05582 15.4368C8.04116 15.7487 6.94513 15.6738 5.98306 15.2268C5.021 14.7798 4.26198 13.9929 3.85453 13.02C3.28549 13.6173 2.51598 13.9882 1.69043 14.0627V29.7821H10.4565V19.8563C10.453 19.7021 10.5117 19.5532 10.6196 19.4424C10.7274 19.3313 10.8755 19.2679 11.031 19.2658H19.2691C19.6011 19.2666 19.8731 19.5274 19.8849 19.8563V29.7821H28.6509V14.0594C27.8354 13.9976 27.0741 13.6312 26.5205 13.0342L26.5203 13.0341ZM8.76198 24.4509C8.76198 24.6059 8.6999 24.7545 8.5894 24.8641C8.47891 24.9736 8.32895 25.0352 8.17269 25.0352H3.532C3.20657 25.0352 2.9427 24.7736 2.9427 24.4509V20.1423C2.9427 19.8197 3.20657 19.5581 3.532 19.5581H8.17269C8.32895 19.5581 8.47891 19.6196 8.5894 19.7291C8.69989 19.8387 8.76198 19.9874 8.76198 20.1423V24.4509ZM27.3245 20.1423V24.4509C27.3245 24.6059 27.2624 24.7545 27.1519 24.8641C27.0414 24.9736 26.8914 25.0352 26.7352 25.0352H22.0945C21.7691 25.0352 21.5052 24.7736 21.5052 24.4509V20.1423C21.5052 19.8197 21.7691 19.5581 22.0945 19.5581H26.7352C26.8914 19.5581 27.0414 19.6196 27.1519 19.7291C27.2624 19.8387 27.3245 19.9874 27.3245 20.1423Z" fill="#CAD3DB"/>
<path d="M28.7362 3.92126C28.5765 3.65523 28.2876 3.49196 27.9751 3.4917H24.9712V8.16471C24.9586 8.49255 24.6863 8.75128 24.3554 8.74971H7.46647C7.13551 8.75128 6.86323 8.49255 6.8506 8.16471V3.4917H4.4287C4.1401 3.49144 3.86992 3.63097 3.70498 3.86545L0.156808 8.90542C0.0536849 9.05252 -0.00104233 9.22778 1.50376e-05 9.40696V10.7726C-0.000774215 11.4982 0.370955 12.1742 0.986328 12.5667C1.60193 12.9593 2.37673 13.0143 3.04226 12.7128C3.70785 12.411 4.17297 11.7944 4.27635 11.0761L4.2995 10.7337H4.29924C4.32002 10.427 4.57679 10.1886 4.88696 10.1883H4.90695C5.22476 10.1988 5.47678 10.4572 5.47652 10.7726C5.47678 10.9137 5.46757 11.0545 5.44968 11.1946L5.43574 11.3996C5.44337 12.4918 6.03661 13.4978 6.99343 14.0401C7.94998 14.582 9.12541 14.5786 10.0786 14.0307C11.032 13.4827 11.6192 12.4734 11.62 11.3808C11.62 11.0581 11.8839 10.7965 12.2093 10.7965C12.5347 10.7965 12.7986 11.0581 12.7986 11.3808C12.7946 12.1966 13.1187 12.9801 13.6991 13.558C14.2797 14.136 15.0684 14.4609 15.8911 14.4607C16.7137 14.4607 17.5024 14.1355 18.0828 13.5573C18.6629 12.979 18.9867 12.1955 18.9827 11.38C18.9825 11.0571 19.2464 10.7953 19.572 10.7948H19.6323C19.958 10.7953 20.2216 11.0571 20.2216 11.38C20.2182 12.4739 20.803 13.4869 21.7564 14.038C22.71 14.5889 23.8873 14.5943 24.8457 14.0521C25.8043 13.5099 26.3987 12.5023 26.4055 11.4085L26.4034 11.3894V11.3892C26.3647 11.186 26.3452 10.9794 26.3452 10.7726C26.3473 10.4627 26.5933 10.2082 26.9056 10.1931C27.2181 10.1779 27.4878 10.4074 27.5207 10.7157L27.5696 11.2162V11.216C27.7177 11.9095 28.2039 12.4846 28.8669 12.7503C29.5298 13.0158 30.2825 12.9373 30.8752 12.5409C31.4676 12.1442 31.8228 11.4815 31.822 10.7726V9.34674C31.8228 9.19024 31.7813 9.03637 31.7015 8.90126L28.7362 3.92126Z" fill="#CAD3DB"/>
</svg>

<svg xmlns="http://www.w3.org/2000/svg" width="32" height="30" fill="none"><path fill="#CAD3DB" d="M8.525 20.726h3.463v3.14H8.524v-3.14ZM1.875 20.726h3.462v3.14H1.875v-3.14Z"/><path fill="#CAD3DB" d="M6.834 20.435h7.072v9.348H6.833v-9.348ZM8 0h15.764v7.741H8V0Z"/><path fill="#CAD3DB" d="M26.52 13.034a4.261 4.261 0 0 1-2.158 2.203 4.317 4.317 0 0 1-3.092.183 4.276 4.276 0 0 1-2.408-1.931 4.283 4.283 0 0 1-3.682 2.132 4.285 4.285 0 0 1-3.71-2.081 4.259 4.259 0 0 1-2.414 1.897 4.3 4.3 0 0 1-3.073-.21 4.243 4.243 0 0 1-2.128-2.207 3.412 3.412 0 0 1-2.165 1.043v15.72h8.766v-9.927a.584.584 0 0 1 .575-.59h8.238c.332 0 .604.261.616.59v9.926h8.766V14.06a3.239 3.239 0 0 1-2.13-1.025ZM8.762 24.451a.582.582 0 0 1-.173.413.592.592 0 0 1-.416.171H3.532a.587.587 0 0 1-.59-.584v-4.309c0-.322.265-.584.59-.584h4.64c.157 0 .307.062.417.171.11.11.173.258.173.413v4.309Zm18.563-4.309v4.309a.582.582 0 0 1-.173.413.592.592 0 0 1-.417.171h-4.64a.587.587 0 0 1-.59-.584v-4.309c0-.322.264-.584.59-.584h4.64c.156 0 .306.062.417.171.11.11.172.258.172.413Z"/><path fill="#CAD3DB" d="M28.736 3.921a.888.888 0 0 0-.76-.43H24.97v4.674a.61.61 0 0 1-.616.585H7.466a.61.61 0 0 1-.615-.585V3.492H4.429a.883.883 0 0 0-.724.373L.157 8.905A.865.865 0 0 0 0 9.407v1.366c0 .725.371 1.401.986 1.794.616.392 1.39.447 2.056.146a2.133 2.133 0 0 0 1.234-1.637l.024-.342a.587.587 0 0 1 .587-.546h.02c.318.01.57.27.57.585 0 .14-.01.282-.027.422l-.014.205a3.062 3.062 0 0 0 1.557 2.64 3.116 3.116 0 0 0 3.086-.01 3.06 3.06 0 0 0 1.541-2.65c0-.322.264-.584.59-.584.325 0 .589.262.589.585-.004.816.32 1.6.9 2.177.58.578 1.37.903 2.192.903.823 0 1.611-.325 2.192-.904.58-.578.904-1.362.9-2.177 0-.323.263-.585.589-.585h.06c.326 0 .59.262.59.585a3.06 3.06 0 0 0 1.534 2.658c.954.55 2.131.556 3.09.014a3.061 3.061 0 0 0 1.56-2.643l-.003-.02a3.297 3.297 0 0 1-.058-.616.586.586 0 0 1 .56-.58.588.588 0 0 1 .616.523l.049.5a2.136 2.136 0 0 0 1.297 1.534 2.167 2.167 0 0 0 2.008-.21c.593-.396.948-1.058.947-1.767V9.347c0-.157-.04-.31-.12-.446l-2.966-4.98Z"/></svg>
